X: 3
T: The Merry Blacksmith
R: reel
M: 4/4
L: 1/8
K: Dmaj
d2 dA BAFG | ABdA BAFA | ABde f2 ed | B/c/d e^d egfe |d/e/d dA BAFG | ABdA BAFA | ABde fdec | dBAF D3 :|a2 ag f2 fe | d2 dA BAFG | ABde f2 ed | Beed e/f/g fg |abag fgfe | dcdA BAFA | ABde f2 ec | dBAF D3 :|


Tune 72	Setting 20702

